assets/emojis/SmilingFacewithSmilingEyes.svg

<svg width="125" height="125" viewBox="0 0 125 125" fill="none" xmlns="http://www.w3.org/2000/svg">
<circle cx="62.3496" cy="62.3496" r="62.3496" fill="#F9B42F"/>
<path opacity="0.3" fill-rule="evenodd" clip-rule="evenodd" d="M113.285 98.5209C101.964 110.112 86.1615 117.308 68.6786 117.308C34.2439 117.308 6.32903 89.3929 6.32903 54.9582C6.32903 41.5625 10.5535 29.1535 17.7429 18.9907C6.76513 30.2299 0 45.6016 0 62.5535C0 96.9882 27.9149 124.903 62.3496 124.903C83.3887 124.903 101.994 114.482 113.285 98.5209Z" fill="#BC8417"/>
<path d="M44.022 61.4002C43.3054 61.4002 42.6182 61.1197 42.1115 60.6205C41.6048 60.1212 41.3202 59.4441 41.3202 58.7381C41.3202 57.8343 40.9558 56.9676 40.3073 56.3286C39.6587 55.6896 38.7791 55.3306 37.8619 55.3306C36.9447 55.3306 36.065 55.6896 35.4165 56.3286C34.7679 56.9676 34.4036 57.8343 34.4036 58.7381C34.4036 59.4441 34.1189 60.1212 33.6122 60.6205C33.1056 61.1197 32.4183 61.4002 31.7018 61.4002C30.9852 61.4002 30.298 61.1197 29.7913 60.6205C29.2847 60.1212 29 59.4441 29 58.7381C29 56.4223 29.9337 54.2013 31.5956 52.5638C33.2575 50.9263 35.5116 50.0063 37.8619 50.0063C40.2122 50.0063 42.4662 50.9263 44.1282 52.5638C45.7901 54.2013 46.7237 56.4223 46.7237 58.7381C46.7237 59.4441 46.4391 60.1212 45.9324 60.6205C45.4257 61.1197 44.7385 61.4002 44.022 61.4002Z" fill="#2C2A46"/>
<path d="M92.1294 61.4007C91.4128 61.4007 90.7256 61.1202 90.2189 60.621C89.7122 60.1217 89.4276 59.4446 89.4276 58.7386C89.4276 57.8348 89.0632 56.9681 88.4147 56.3291C87.7661 55.6901 86.8865 55.3311 85.9693 55.3311C85.0521 55.3311 84.1725 55.6901 83.5239 56.3291C82.8754 56.9681 82.511 57.8348 82.511 58.7386C82.511 59.4446 82.2263 60.1217 81.7197 60.621C81.213 61.1202 80.5258 61.4007 79.8092 61.4007C79.0927 61.4007 78.4054 61.1202 77.8988 60.621C77.3921 60.1217 77.1074 59.4446 77.1074 58.7386C77.1074 56.4228 78.0411 54.2018 79.703 52.5643C81.3649 50.9268 83.619 50.0068 85.9693 50.0068C88.3196 50.0068 90.5737 50.9268 92.2356 52.5643C93.8975 54.2018 94.8312 56.4228 94.8312 58.7386C94.8312 59.4446 94.5465 60.1217 94.0398 60.621C93.5331 61.1202 92.8459 61.4007 92.1294 61.4007Z" fill="#2C2A46"/>
<path d="M78.8836 75H45.7356C43.0636 75 42.0931 78.1523 43.9836 80.0639C48.1303 84.2163 53.739 88.9258 62.297 88.9258C70.8549 88.9258 76.4636 84.1784 80.6103 80.0639C82.5261 78.1523 81.5556 75 78.8836 75Z" fill="#2C2A46"/>
</svg>

<svg xmlns="http://www.w3.org/2000/svg" width="125" height="125" fill="none" viewBox="0 0 125 125"><circle cx="62.35" cy="62.35" r="62.35" fill="#f9b42f"/><path fill="#bc8417" fill-rule="evenodd" d="M113.285 98.52c-11.321 11.592-27.123 18.788-44.606 18.788-34.435 0-62.35-27.915-62.35-62.35 0-13.395 4.225-25.804 11.414-35.967C6.765 30.23 0 45.6 0 62.554c0 34.434 27.915 62.349 62.35 62.349 21.039 0 39.644-10.421 50.935-26.382" clip-rule="evenodd" opacity=".3"/><path fill="#2c2a46" d="M44.022 61.4c-.717 0-1.404-.28-1.91-.78a2.64 2.64 0 0 1-.792-1.882c0-.904-.364-1.77-1.013-2.41a3.5 3.5 0 0 0-2.445-.997c-.917 0-1.797.359-2.446.998a3.38 3.38 0 0 0-1.012 2.41c0 .705-.285 1.382-.792 1.882a2.72 2.72 0 0 1-1.91.78 2.72 2.72 0 0 1-1.91-.78A2.64 2.64 0 0 1 29 58.738c0-2.316.934-4.537 2.596-6.174a8.93 8.93 0 0 1 6.266-2.558c2.35 0 4.604.92 6.266 2.558a8.67 8.67 0 0 1 2.596 6.174c0 .706-.285 1.383-.792 1.883a2.72 2.72 0 0 1-1.91.78M92.13 61.4c-.717 0-1.404-.28-1.911-.779a2.64 2.64 0 0 1-.791-1.882c0-.904-.365-1.77-1.013-2.41a3.5 3.5 0 0 0-2.446-.998 3.5 3.5 0 0 0-2.445.998 3.38 3.38 0 0 0-1.013 2.41c0 .706-.285 1.383-.791 1.882a2.72 2.72 0 0 1-1.91.78c-.717 0-1.405-.28-1.911-.78a2.64 2.64 0 0 1-.792-1.882 8.67 8.67 0 0 1 2.596-6.175 8.93 8.93 0 0 1 6.266-2.557c2.35 0 4.605.92 6.267 2.557a8.67 8.67 0 0 1 2.595 6.175c0 .706-.285 1.383-.791 1.882a2.72 2.72 0 0 1-1.91.78M78.884 75H45.736c-2.672 0-3.643 3.152-1.752 5.064 4.146 4.152 9.755 8.862 18.313 8.862s14.167-4.748 18.313-8.862c1.916-1.912.946-5.064-1.726-5.064"/></svg>
